X: 183
T:Country Bumpkin. JaW.182
M:6/8
Q:120
C:"...for a nine reel"
S:James Winder Ms, Lancashire, 1835-41
R:Jig
O:England
A:Wyresdale,Lancashire
H:1/8
Z:vmp.Chris Partington, Aug 2004
K:G
c3 B3|ABG FED|G2B BAB|G2B BAB|c3 B3|!
A2G FED|c2B c2B|A2G FED|g2d edc|B3 G3:|!
|:gfe dcB|ABA FED|G2B BAB|G2B BAB|!
gfe dcB|ABA FED|g2d edc|B3 G3:|!
|:cac BgB|ABA FED|G2B BAB|G2B BAB|!
cac BgB|ABA FED|g2d edc|B3G3:|]
